X: 31511
T: Paddy's Green Shamrock Shore
R: waltz
M: 3/4
K: Gmajor
D2|(A2B2c2)|A4 D2|A2F2A2|G2F2D2|C2(B,2C2)|
D4 E2|(D6|D4) d2|B2A2G2|A4Bc|
d4cB|A4 d2|c2B2A2|G2(D2E2)|(C6|C4) d2|
B2A2G2|A4 Bc|d4 cB|A4 dd|c2B2A2|
G2(D2E2)|(C6|C4) D2|A2B2c2|A4D2|
A2F2A2|G2(F2D2)|C2B,2C2|D4 (E2|D6|D4)||

